svg/emoji_u1f5b1.svg

<?xml version="1.0" encoding="UTF-8" standalone="no"?>
<svg
   xmlns:dc="http://purl.org/dc/elements/1.1/"
   xmlns:cc="http://creativecommons.org/ns#"
   xmlns:rdf="http://www.w3.org/1999/02/22-rdf-syntax-ns#"
   xmlns:svg="http://www.w3.org/2000/svg"
   xmlns="http://www.w3.org/2000/svg"
   xmlns:sodipodi="http://sodipodi.sourceforge.net/DTD/sodipodi-0.dtd"
   xmlns:inkscape="http://www.inkscape.org/namespaces/inkscape"
   width="128"
   height="128"
   style="enable-background:new 0 0 128 128;"
   version="1.1"
   id="svg22"
   sodipodi:docname="emoji_u1f5b1.svg"
   inkscape:version="0.92+devel unknown">
  <metadata
     id="metadata28">
    <rdf:RDF>
      <cc:Work
         rdf:about="">
        <dc:format>image/svg+xml</dc:format>
        <dc:type
           rdf:resource="http://purl.org/dc/dcmitype/StillImage" />
      </cc:Work>
    </rdf:RDF>
  </metadata>
  <defs
     id="defs26" />
  <sodipodi:namedview
     pagecolor="#ffffff"
     bordercolor="#666666"
     inkscape:document-rotation="0"
     borderopacity="1"
     objecttolerance="10"
     gridtolerance="10"
     guidetolerance="10"
     inkscape:pageopacity="0"
     inkscape:pageshadow="2"
     inkscape:window-width="1680"
     inkscape:window-height="986"
     id="namedview24"
     showgrid="false"
     inkscape:snap-bbox="true"
     inkscape:bbox-nodes="true"
     inkscape:snap-bbox-midpoints="true"
     inkscape:snap-object-midpoints="true"
     inkscape:snap-bbox-edge-midpoints="true"
     showguides="true"
     inkscape:guide-bbox="true"
     inkscape:object-paths="true"
     inkscape:zoom="1.3613281"
     inkscape:cx="-129.39434"
     inkscape:cy="179.56654"
     inkscape:window-x="0"
     inkscape:window-y="27"
     inkscape:window-maximized="1"
     inkscape:current-layer="svg22">
    <sodipodi:guide
       position="63.767578,76.450579"
       orientation="1,0"
       id="guide907"
       inkscape:locked="false" />
    <sodipodi:guide
       position="78.511719,78.303199"
       orientation="1,0"
       id="guide909"
       inkscape:locked="false" />
  </sodipodi:namedview>
  <path
     d="M58.03,2.19c-8.95-3.78-22.07-1.31-27.32,8.41c-3.6,6.67-3.76,13.16-3.89,18.89 c-0.15,6.28-0.27,11.71-4.43,16.91c-3.78,4.73-9.87,7.16-18.11,7.22c-0.06,0-0.11,0-0.17,0c-0.37,0-0.74-0.01-1.11-0.02 c-1.47-0.07-2.68,1.14-2.68,2.61v0.01c0,1.37,1.06,2.54,2.43,2.61c0.45,0.02,0.9,0.04,1.36,0.03c0.07,0,0.14,0,0.21,0 c9.9-0.07,17.36-3.16,22.17-9.19c5.25-6.58,5.41-13.43,5.57-20.06c0.13-5.64,0.25-10.96,3.26-16.52C39.16,5.98,49.3,4.19,56,7.02 c8.33,3.52,12.75,14.74,12.12,30.78L73.34,38C74.07,19.66,68.49,6.61,58.03,2.19z"
     style="fill:#2F2F2F;"
     id="path2" />
  <path
     d="M71.14,127.75L71.14,127.75c-19.83,0-35.9-16.07-35.9-35.9V40.96C35.24,31.04,43.28,23,53.2,23h35.88 c9.92,0,17.96,8.04,17.96,17.96v50.89C107.04,111.68,90.97,127.75,71.14,127.75z"
     style="fill:#7e9aa8;fill-opacity:1"
     id="path4" />
  <path
     d="M88.13,18.96"
     style="fill:#40C0E7;"
     id="path8" />
  <path
     style="vector-effect:none;fill:#242e3a;fill-opacity:1;stroke:none;stroke-width:0.77999997;stroke-linejoin:round"
     d="M 78.511719 23 L 78.511719 63.949219 C 78.511719 66.165219 80.295719 67.949219 82.511719 67.949219 L 107.03906 67.949219 L 107.03906 40.960938 C 107.03906 31.040938 99.000078 23 89.080078 23 L 78.511719 23 z "
     id="rect899" />
  <path
     style="vector-effect:none;fill:#242e3a;fill-opacity:1;stroke:none;stroke-width:0.77999997;stroke-linejoin:round"
     d="M 53.199219 23 C 43.279219 23 35.240234 31.040937 35.240234 40.960938 L 35.240234 67.949219 L 59.767578 67.949219 C 61.983578 67.949219 63.767578 66.165219 63.767578 63.949219 L 63.767578 23 L 53.199219 23 z "
     id="rect897" />
  <rect
     style="vector-effect:none;fill:#2b3233;fill-opacity:1;stroke:none;stroke-width:0.77999997;stroke-linejoin:round"
     id="rect905"
     width="9.016634"
     height="31.122293"
     x="66.631683"
     y="30.778685"
     rx="4"
     ry="4" />
</svg>

<svg xmlns="http://www.w3.org/2000/svg" width="128" height="128"><path d="M58.03 2.19C49.08-1.59 35.96.88 30.71 10.6c-3.6 6.67-3.76 13.16-3.89 18.89-.15 6.28-.27 11.71-4.43 16.91-3.78 4.73-9.87 7.16-18.11 7.22h-.17c-.37 0-.74-.01-1.11-.02-1.47-.07-2.68 1.14-2.68 2.61v.01c0 1.37 1.06 2.54 2.43 2.61.45.02.9.04 1.36.03h.21c9.9-.07 17.36-3.16 22.17-9.19 5.25-6.58 5.41-13.43 5.57-20.06.13-5.64.25-10.96 3.26-16.52C39.16 5.98 49.3 4.19 56 7.02c8.33 3.52 12.75 14.74 12.12 30.78l5.22.2c.73-18.34-4.85-31.39-15.31-35.81z" fill="#2f2f2f"/><path d="M71.14 127.75c-19.83 0-35.9-16.07-35.9-35.9V40.96C35.24 31.04 43.28 23 53.2 23h35.88c9.92 0 17.96 8.04 17.96 17.96v50.89c0 19.83-16.07 35.9-35.9 35.9z" fill="#7e9aa8"/><path d="M78.512 23v40.95c0 2.215 1.784 4 4 4h24.527V40.96C107.04 31.04 99 23 89.08 23H78.512zM53.2 23c-9.92 0-17.96 8.04-17.96 17.96v26.99h24.528c2.216 0 4-1.785 4-4V23H53.199z" fill="#242e3a" stroke-width=".78" stroke-linejoin="round"/><rect width="9.017" height="31.122" x="66.632" y="30.779" rx="4" ry="4" fill="#2b3233" stroke-width=".78" stroke-linejoin="round"/></svg>
